X:080
U: ~ = !turn!
%%topmargin 3cm
T:Gartan Lullaby
B:Traditional Irish Fiddle Tunes. Randy Miller and Jack Perron.
Z:Transcribed by Ralph Palmer
S:Mary O'Hara
R:Waltz
L:1/4
M:3/4
K:D
D2 D | F F G | A2 G | F2 D | F2 E | D2 D (D3 | D3) |
A2 A | e d c | d d2 | A2 c | d2 d | c<A F | (G3 | G2) A |
d2 d | e d c | d2 d | A2 c | d2 d | c<A F | (G3 | G2) A |
B2 B | =c A F | F2 F | D2 F | G2 F | D2 D | (D3 | D3) |]
